frontend/public/svg/finance/trend-down-square.svg

<svg width="167" height="150" viewBox="0 0 167 150" fill="none" xmlns="http://www.w3.org/2000/svg">
<g clip-path="url(#clip0)">
<path d="M141.059 96.1035C139.008 86.2768 136.854 76.1475 134.654 65.9958C134.402 64.7729 133.932 63.6052 133.268 62.5482C132.705 61.7483 131.907 61.1431 130.985 60.8163C130.064 60.4894 129.063 60.457 128.122 60.7237C127.18 60.9903 126.346 61.5428 125.732 62.3047C125.119 63.0666 124.757 64.0002 124.697 64.9765C124.673 65.9486 124.798 66.9188 125.068 67.8527C125.805 70.6579 126.552 73.4611 127.307 76.2624C128.066 79.0938 128.82 81.9259 129.569 84.7593C129.701 85.2575 129.791 85.7852 129.883 86.3733C129.861 86.3575 129.84 86.3424 129.818 86.326C127.962 84.9451 126.103 83.5668 124.242 82.1911L123.824 81.8813C119 78.3135 114.012 74.6248 109.179 70.9073C106.368 68.7454 103.604 66.456 100.931 64.2414C99.1239 62.7443 97.2553 61.1966 95.3729 59.6877C92.2599 57.1936 90.0881 57.3204 87.0709 60.1695C81.6673 65.2693 76.1541 70.356 70.8226 75.2753L67.6007 78.2498C67.2423 78.5589 66.8597 78.8398 66.4573 79.0899L66.3628 79.1516C65.1815 78.1277 64.0062 77.113 62.837 76.1075C59.8336 73.5182 56.9956 71.0721 54.1077 68.4979C51.2073 65.9144 48.2781 63.268 45.444 60.705L45.3561 60.6257C41.6366 57.2646 37.421 53.4552 33.3281 49.8532C31.0501 47.9194 28.6703 46.1089 26.1989 44.4293L25.6437 44.0354C24.9724 43.5253 24.1321 43.2898 23.2934 43.3765C22.4548 43.4633 21.6806 43.866 21.1279 44.5027C20.5441 45.0935 20.1944 45.876 20.1436 46.705C20.0928 47.534 20.3444 48.3535 20.8517 49.0112C21.7071 50.2152 22.6884 51.3245 23.779 52.3204C28.0714 56.3083 33.1508 61.0083 38.2794 65.6276C42.0626 69.0361 45.9239 72.4825 49.6597 75.8174L49.7516 75.8988C53.7224 79.443 57.8245 83.106 61.8466 86.7284C65.2319 89.7816 67.4911 89.8 70.7964 86.7992C75.3251 82.6919 79.8965 78.4893 84.3169 74.4253C86.4724 72.4432 88.6284 70.4623 90.7851 68.4828C90.8646 68.41 90.9492 68.3404 91.0326 68.2741L125.322 94.7166C123.012 94.6287 120.702 94.5375 118.392 94.4423C114.371 94.2815 110.349 94.1266 106.327 93.977L106.094 93.9691C103.633 93.8798 101.088 93.7873 98.5667 93.8949C98.1447 93.9008 97.7272 93.9907 97.34 94.1581C96.9521 94.3261 96.6016 94.569 96.3082 94.8729C96.0148 95.1767 95.7838 95.5358 95.6296 95.9289C95.4753 96.322 95.4005 96.7414 95.409 97.1641C95.3224 98.9474 96.5248 100.245 98.4669 100.471C99.5669 100.597 100.667 100.733 101.766 100.865C105.542 101.324 109.445 101.798 113.318 102.009C118.675 102.301 124.109 102.428 129.374 102.551C131.38 102.599 133.386 102.648 135.392 102.702C135.509 102.702 135.622 102.707 135.735 102.707C137.832 102.707 139.365 102.146 140.291 101.038C141.246 99.9037 141.506 98.2399 141.059 96.1035Z" fill="black"/>
<path d="M164.9 90.8592C164.327 77.1325 163.746 65.1439 163.122 54.2119C162.695 46.7139 162.085 36.8479 161.157 27.0199C159.803 12.6789 148.268 2.30024 133.105 1.77911C121.882 1.39253 110.462 1.23107 99.4128 1.07486C96.2624 1.03089 93.0628 1.0579 89.9681 1.08415C84.8914 1.12747 79.642 1.17276 74.5055 0.899722C62.8376 0.286047 50.4655 0.79996 34.403 2.5747C23.9541 3.72985 16.0912 6.8015 9.65379 12.2425C4.34859 16.7267 1.76264 21.9273 1.74951 28.1429C1.74492 30.144 1.7048 32.1722 1.62998 34.1714C1.56434 35.9317 1.44297 37.7307 1.3268 39.47C0.997988 43.1935 0.910357 46.9343 1.06433 50.6691C1.16278 52.2259 1.2634 53.7831 1.36622 55.3404C2.16367 67.5382 2.988 80.1497 2.15379 92.5972C1.80922 97.731 1.90312 102.967 1.99436 108.027L2.01406 109.147C2.16765 117.833 3.43701 125.467 5.89762 132.485C8.55187 140.058 13.7047 144.663 21.2139 146.171C25.8598 147.138 30.575 147.735 35.3152 147.957C44.1377 148.317 53.1112 148.517 61.79 148.711C65.3185 148.79 68.8465 148.873 72.375 148.958H72.3875C72.5056 148.957 72.6205 148.918 72.7157 148.848H75.5103C77.8403 148.848 80.173 148.848 82.5076 148.848L86.208 148.854C100.823 148.884 115.931 148.914 130.683 146.601C135.827 145.795 141.836 144.669 147.404 142.431C158.576 137.941 164.606 129.661 165.323 117.823C165.782 110.213 165.436 102.554 165.098 95.1477C165.028 93.7188 164.963 92.2893 164.9 90.8592ZM11.6418 82.5611C11.4581 74.6161 11.057 66.0706 10.3803 55.6698C9.84538 47.4564 9.5199 36.6281 11.7784 25.6528C11.8308 25.5028 11.853 25.3441 11.8439 25.1855C11.3221 19.0205 15.7229 16.6058 20.3822 14.05L20.5444 13.9614C25.0633 11.4805 30.0691 10.618 34.8085 9.94661C45.5962 8.52768 56.4704 7.8697 67.3507 7.9776C71.8841 7.9776 76.3544 8.05236 80.74 8.1449C88.7132 8.31227 96.8203 8.42128 104.659 8.52695C111.501 8.61819 118.573 8.71401 125.531 8.84725C128.754 8.88663 131.971 9.16203 135.155 9.67102C146.6 11.5777 152.929 19.0185 153.46 31.1896C153.895 41.1804 154.295 51.3393 154.682 61.1666C154.973 68.5443 155.269 75.9222 155.571 83.2995C155.682 85.9596 155.834 88.6618 155.981 91.2733C156.212 95.3754 156.451 99.6167 156.535 103.786C156.635 108.722 156.361 113.768 156.075 118.513C155.655 125.432 151.629 130.346 144.112 133.119C139.508 134.737 134.749 135.873 129.912 136.51C113.617 138.939 96.8932 138.83 80.7217 138.728L78.5846 138.714C77.7458 138.709 76.9077 138.711 76.0695 138.714H74.8757C74.77 138.714 74.6656 138.739 74.5718 138.786C74.4779 138.834 74.3959 138.902 74.3329 138.987C70.7886 138.897 67.2451 138.809 63.7005 138.725C53.3534 138.47 42.6537 138.207 32.1353 137.861C29.4252 137.698 26.7319 137.325 24.0794 136.746L23.595 136.653C19.1483 135.8 16.1732 133.055 14.7529 128.488C12.5958 121.349 11.5167 113.927 11.5513 106.469C11.5277 103.056 11.5762 99.5885 11.6228 96.23C11.6819 91.7498 11.7462 87.1187 11.6418 82.5611Z" fill="black"/>
</g>
<defs>
<clipPath id="clip0">
<rect width="165.397" height="148.989" fill="white" transform="translate(0.703613 0.423828)"/>
</clipPath>
</defs>
</svg>

<svg xmlns="http://www.w3.org/2000/svg" width="167" height="150" fill="none" viewBox="0 0 167 150"><g fill="#000" clip-path="url(#a)"><path d="M141.059 96.104a4043 4043 0 0 0-6.405-30.108 10.5 10.5 0 0 0-1.386-3.448 4.72 4.72 0 0 0-8.571 2.428 9.5 9.5 0 0 0 .371 2.877q1.106 4.207 2.239 8.41 1.138 4.246 2.262 8.496c.132.498.222 1.026.314 1.614l-.065-.047q-2.784-2.071-5.576-4.135l-.418-.31c-4.824-3.567-9.812-7.256-14.645-10.974-2.811-2.162-5.575-4.451-8.248-6.666a446 446 0 0 0-5.558-4.553c-3.113-2.494-5.285-2.368-8.302.481-5.404 5.1-10.917 10.187-16.248 15.106L67.6 78.25q-.539.464-1.144.84l-.094.062a1201 1201 0 0 0-3.526-3.044c-3.003-2.59-5.841-5.036-8.73-7.61-2.9-2.584-5.829-5.23-8.663-7.793l-.088-.08c-3.72-3.36-7.935-7.17-12.028-10.772a84 84 0 0 0-7.13-5.424l-.554-.394a3.32 3.32 0 0 0-4.516.468 3.43 3.43 0 0 0-.276 4.508 20.8 20.8 0 0 0 2.927 3.31c4.292 3.987 9.372 8.687 14.5 13.307 3.784 3.408 7.645 6.855 11.38 10.19l.093.08a3655 3655 0 0 1 12.095 10.83c3.385 3.054 5.644 3.072 8.95.071 4.528-4.107 9.1-8.31 13.52-12.374q3.233-2.973 6.468-5.942a5 5 0 0 1 .248-.209l34.289 26.443q-3.465-.132-6.93-.275-6.032-.24-12.065-.465l-.233-.008c-2.461-.09-5.006-.182-7.527-.074a3.207 3.207 0 0 0-3.158 3.27c-.087 1.782 1.116 3.08 3.058 3.306 1.1.126 2.2.262 3.299.394 3.776.459 7.679.933 11.552 1.144 5.357.292 10.791.419 16.056.542q3.009.071 6.018.151c.117 0 .23.005.343.005 2.097 0 3.63-.561 4.556-1.669.955-1.134 1.215-2.798.768-4.934"/><path d="M164.9 90.86c-.573-13.728-1.154-25.716-1.778-36.648-.427-7.498-1.037-17.364-1.965-27.192-1.354-14.341-12.889-24.72-28.052-25.24-11.223-.387-22.643-.549-33.692-.705-3.15-.044-6.35-.017-9.445.01-5.077.042-10.326.088-15.463-.185C62.838.286 50.466.8 34.404 2.575 23.954 3.73 16.091 6.802 9.653 12.243c-5.304 4.484-7.89 9.684-7.903 15.9a173 173 0 0 1-.12 6.028c-.066 1.76-.187 3.56-.303 5.299a87 87 0 0 0-.263 11.2q.149 2.334.302 4.67c.798 12.198 1.622 24.81.788 37.257-.345 5.134-.25 10.37-.16 15.43l.02 1.12c.154 8.686 1.423 16.32 3.884 23.338 2.654 7.573 7.807 12.178 15.316 13.686a90 90 0 0 0 14.101 1.786c8.823.36 17.796.56 26.475.754q5.293.119 10.585.247h.013a.56.56 0 0 0 .328-.11h9.792l3.7.006c14.615.03 29.723.06 44.475-2.253 5.144-.806 11.153-1.932 16.721-4.17 11.172-4.49 17.202-12.77 17.919-24.608.459-7.61.113-15.269-.225-22.675q-.104-2.144-.198-4.289M11.642 82.56c-.184-7.945-.585-16.49-1.262-26.891-.535-8.214-.86-19.042 1.398-30.017.053-.15.075-.309.066-.467-.522-6.166 3.879-8.58 8.538-11.136l.162-.089c4.52-2.48 9.525-3.343 14.265-4.014a232 232 0 0 1 32.542-1.97c4.533 0 9.003.075 13.389.168 7.973.167 16.08.276 23.919.382 6.842.091 13.914.187 20.872.32 3.223.04 6.44.315 9.624.824 11.445 1.907 17.774 9.348 18.305 21.519.435 9.99.835 20.15 1.222 29.977q.436 11.066.889 22.132c.111 2.66.263 5.363.41 7.974.231 4.102.47 8.344.554 12.513.1 4.936-.174 9.982-.46 14.727-.42 6.919-4.446 11.833-11.963 14.606a70.7 70.7 0 0 1-14.2 3.391c-16.295 2.429-33.019 2.32-49.19 2.218l-2.137-.014q-1.259-.006-2.515 0h-1.194a.68.68 0 0 0-.543.273q-5.316-.136-10.632-.262c-10.348-.255-21.047-.518-31.566-.864a52.6 52.6 0 0 1-8.056-1.115l-.484-.093c-4.447-.853-7.422-3.598-8.842-8.165a75 75 0 0 1-3.202-22.019c-.023-3.413.025-6.88.072-10.239.059-4.48.123-9.111.019-13.669"/></g><defs><clipPath id="a"><path fill="#fff" d="M.704.424H166.1v148.989H.704z"/></clipPath></defs></svg>
